ds42/src/images/icons/order-history.svg

<?xml version="1.0" encoding="UTF-8"?>
<svg width="15px" height="18px" viewBox="0 0 15 18" version="1.1" xmlns="http://www.w3.org/2000/svg" xmlns:xlink="http://www.w3.org/1999/xlink">
    <!-- Generator: Sketch 62 (91390) - https://sketch.com -->
    <title>order-history</title>
    <desc>Created with Sketch.</desc>
    <g id="Page-1" stroke="none" stroke-width="1" fill="none" fill-rule="evenodd">
        <g id="Artboard" transform="translate(-798.000000, -353.000000)">
            <g id="order-history" transform="translate(798.000000, 353.000000)">
                <path d="M3.18556661,1.28571429 L9.59229535,1.28571429 C9.97367576,1.28571429 10.2857143,1.61372328 10.2857143,2.01462317 L10.2857143,15.9853768 C10.2857143,16.3862767 9.97367576,16.7142857 9.59229535,16.7142857 L0.693418941,16.7142857 C0.311980738,16.7142857 0,16.3862767 0,15.9853768 L0,4.50202475 C0,4.42451744 0.0300481541,4.3504117 0.0832680578,4.29677615 L2.99036918,1.36814173 C3.04289567,1.3152351 3.11281541,1.28571429 3.18556661,1.28571429 Z" id="background-color"></path>
                <path d="M10.3788817,0 C10.9194042,0 11.3638242,0.423009321 11.4206778,0.959704847 L11.4268224,1.0763384 L11.426608,9.368634 C13.0184041,10.028325 14.1428571,11.6406403 14.1428571,13.5250145 C14.1428571,15.9965082 12.2085471,18 9.82249723,18 C8.58044385,18 7.46082083,17.4571135 6.67272583,16.5879259 L1.04794069,16.5875358 C0.507377222,16.5875358 0.062992782,16.1645418 0.00614402773,15.627834 L9.17361425e-14,15.5111974 L9.17361425e-14,3.6463709 C9.17361425e-14,3.51336833 0.0420423481,3.38463794 0.118900224,3.27884088 L0.182958622,3.20408466 L3.23122667,0.178142539 C3.32313178,0.0869259278 3.44014157,0.0276446696 3.56563646,0.00758083071 L3.66108891,0 L10.3788817,0 Z M3.947,0.645 L3.9476551,2.79816603 C3.9476551,3.36797085 3.53033304,3.84406825 2.99046874,3.91394238 L2.8531203,3.92276707 L0.641,3.922 L0.641708755,15.5111974 C0.641708755,15.7225041 0.788302527,15.8978346 0.975883019,15.9341883 L1.04794069,15.9411051 L6.18598713,15.9420837 C5.84956945,15.400158 5.62297523,14.7781376 5.53876786,14.1097521 L1.9468375,14.1095726 L1.9468375,12.9171277 L5.54170152,12.9174491 C5.61878605,12.3292074 5.80622103,11.7772914 6.08170232,11.2848039 L1.9468375,11.285361 L1.9468375,10.0929162 L7.05152965,10.0915662 C7.8016004,9.44139805 8.76791855,9.05002898 9.82249723,9.05002898 C10.1535386,9.05002898 10.4758845,9.08859396 10.7855756,9.16162325 L10.7851137,1.0763384 C10.7851137,0.865054468 10.6384919,0.689706211 10.4509301,0.653348375 L10.3788817,0.646430642 L3.947,0.645 Z M9.56088539,7.26870462 L9.56088539,8.4611495 L1.9468375,8.4611495 L1.9468375,7.26870462 L9.56088539,7.26870462 Z M9.56088539,4.44449308 L9.56088539,5.63693796 L1.9468375,5.63693796 L1.9468375,4.44449308 L9.56088539,4.44449308 Z M3.305,1.01 L1.022,3.276 L2.8531203,3.27633643 C3.06862715,3.27633643 3.25369196,3.11254751 3.29659086,2.89457878 L3.30594635,2.79816603 L3.305,1.01 Z M9.56088539,1.62028154 L9.56088539,2.81272641 L4.40572224,2.81272641 L4.40572224,1.62028154 L9.56088539,1.62028154 Z" id="color" fill="#2C2C2C" fill-rule="evenodd"></path>
                <path d="M11.1122017,10.2857143 C11.5071933,10.2857143 11.8285714,10.5779679 11.8285714,10.9371639 L11.8285714,10.9371639 L11.8285714,12.4158554 C11.8285714,12.6170492 11.7237479,12.8103107 11.5481849,12.9327785 L11.5481849,12.9327785 L10.7282521,13.5045851 L11.553479,14.0914308 C11.7283361,14.2157326 11.8285714,14.4028042 11.8285714,14.6046399 L11.8285714,14.6046399 L11.8285714,16.0628361 C11.8285714,16.4220321 11.5071933,16.7142857 11.1122017,16.7142857 L11.1122017,16.7142857 L8.68784874,16.7142857 C8.29285714,16.7142857 7.97142857,16.4220321 7.97142857,16.0628361 L7.97142857,16.0628361 L7.97142857,14.5841904 C7.97142857,14.382905 8.07630252,14.1896893 8.25186555,14.0672215 L8.25186555,14.0672215 L9.07179832,13.4953691 L8.24657143,12.9085692 C8.07171429,12.7842674 7.97142857,12.5971958 7.97142857,12.3953601 L7.97142857,12.3953601 L7.97142857,10.9371639 C7.97142857,10.5779679 8.29285714,10.2857143 8.68784874,10.2857143 L8.68784874,10.2857143 Z M11.1122017,10.5149688 L8.68784874,10.5149688 C8.43141176,10.5149688 8.22352941,10.7040121 8.22352941,10.9371639 L8.22352941,10.9371639 L8.22352941,12.3953601 C8.22352941,12.5252557 8.28932773,12.6479527 8.40186555,12.7279625 L8.40186555,12.7279625 L9.48352941,13.4971572 L8.40529412,14.249112 C8.2907395,14.3290301 8.22352941,14.4528734 8.22352941,14.5841904 L8.22352941,14.5841904 L8.22352941,16.0628361 C8.22352941,16.2959879 8.43141176,16.4850312 8.68784874,16.4850312 L8.68784874,16.4850312 L11.1122017,16.4850312 C11.3686387,16.4850312 11.5764706,16.2959879 11.5764706,16.0628361 L11.5764706,16.0628361 L11.5764706,14.6046399 C11.5764706,14.4746985 11.5107227,14.3520473 11.3981849,14.2720375 L11.3981849,14.2720375 L10.316521,13.5028428 L11.3947563,12.7508421 C11.5093109,12.670924 11.5764706,12.5471266 11.5764706,12.4158554 L11.5764706,12.4158554 L11.5764706,10.9371639 C11.5764706,10.7040121 11.3686387,10.5149688 11.1122017,10.5149688 L11.1122017,10.5149688 Z M10.2202467,14.9716085 L11.0548004,15.6117096 C11.1570659,15.6901376 11.2168232,15.8103463 11.2168232,15.9376969 C11.2168232,16.0597357 11.115923,16.158697 10.9914932,16.158697 L8.87072456,16.158697 C8.74629473,16.158697 8.6453946,16.0597357 8.6453946,15.9376969 L8.6453946,15.9211364 C8.6453946,15.7924466 8.70642621,15.6710774 8.81055768,15.5927387 L9.63987753,14.9689749 C9.81132127,14.8400173 10.0500318,14.8410886 10.2202467,14.9716085 Z M10.9923276,10.9476311 C11.1167574,10.9476311 11.2176575,11.0465906 11.2176575,11.1686719 L11.2176575,11.1852321 C11.2176575,11.3139196 10.4754253,11.9367088 10.3712939,12.0150016 L10.2231746,12.1373769 C10.0517309,12.2663323 9.81302038,12.2652163 9.64280546,12.1346987 L8.80825173,11.4946535 C8.70598624,11.4162269 8.64622897,11.2960203 8.64622897,11.1686719 C8.64622897,11.0465906 8.7471291,10.9476311 8.87155894,10.9476311 L10.9923276,10.9476311 Z" id="hour-glass" fill="#FFFFFF" fill-rule="evenodd"></path>
            </g>
        </g>
    </g>
</svg>

<svg width="15" height="18" xmlns="http://www.w3.org/2000/svg">
  <g fill="none" fill-rule="evenodd">
    <path d="M3.186 1.286h6.406c.382 0 .694.328.694.729v13.97c0 .401-.312.73-.694.73H.693c-.381 0-.693-.329-.693-.73V4.502c0-.077.03-.152.083-.205L2.99 1.368a.275.275 0 01.196-.082z"/>
    <path d="M10.379 0c.54 0 .985.423 1.042.96l.006.116V9.37c1.591.66 2.716 2.272 2.716 4.156 0 2.472-1.934 4.475-4.32 4.475a4.24 4.24 0 01-3.15-1.412H1.048c-.54 0-.985-.423-1.042-.96L0 15.51V3.646c0-.133.042-.261.119-.367l.064-.075L3.231.178a.612.612 0 01.335-.17L3.66 0h6.718zM3.947.645v2.153c0 .57-.417 1.046-.957 1.116l-.137.009-2.212-.001v11.59c0 .21.147.386.335.422l.072.007 5.138.001a4.548 4.548 0 01-.647-1.832H1.947v-1.193h3.595c.077-.588.264-1.14.54-1.632H1.947v-1.192l5.105-.001a4.215 4.215 0 013.734-.93V1.076a.427.427 0 00-.335-.423l-.072-.007L3.947.645zm5.614 6.624V8.46H1.947V7.27H9.56zm0-2.825v1.193H1.947V4.444H9.56zM3.305 1.01L1.022 3.276h1.831c.216 0 .4-.163.444-.381l.009-.097-.001-1.788zm6.256.61v1.193H4.406V1.62H9.56z" fill="#2C2C2C"/>
    <path d="M11.112 10.286c.395 0 .717.292.717.651v1.479a.637.637 0 01-.28.517l-.82.572.824.586a.628.628 0 01.276.514v1.458c0 .359-.322.651-.717.651H8.688c-.395 0-.717-.292-.717-.651v-1.479c0-.201.105-.394.28-.517l.82-.572-.824-.586a.628.628 0 01-.276-.514v-1.458c0-.359.322-.651.717-.651zm0 .229H8.688c-.257 0-.464.189-.464.422v1.458c0 .13.065.253.178.333l1.082.77-1.079.751a.41.41 0 00-.181.335v1.479c0 .233.207.422.464.422h2.424c.257 0 .464-.189.464-.422v-1.458a.41.41 0 00-.178-.333l-1.081-.77 1.078-.751a.41.41 0 00.181-.335v-1.479c0-.233-.207-.422-.464-.422zm-.892 4.457l.835.64a.41.41 0 01.162.326c0 .122-.101.22-.226.22h-2.12a.223.223 0 01-.226-.22v-.017c0-.129.061-.25.166-.328l.829-.624a.481.481 0 01.58.003zm.772-4.024c.125 0 .226.099.226.22v.017c0 .129-.743.752-.847.83l-.148.122a.481.481 0 01-.58-.002l-.835-.64a.41.41 0 01-.162-.326c0-.122.101-.221.226-.221h2.12z" fill="#FFF"/>
  </g>
</svg>
